svgs/sharp-light/file-word.svg

<svg xmlns="http://www.w3.org/2000/svg" viewBox="0 0 384 512"><!--! Font Awesome Pro 6.6.0 by @fontawesome - https://fontawesome.com License - https://fontawesome.com/license (Commercial License) Copyright 2024 Fonticons, Inc. --><path d="M352 480L32 480 32 32l160 0 0 144 0 16 16 0 144 0 0 288zM224 37.3L346.7 160 224 160l0-122.7zM232 0L32 0 0 0 0 32 0 480l0 32 32 0 320 0 32 0 0-32 0-328L232 0zm77.9 224l-33.2 0L240.1 355.7 207.4 235.8 204.2 224l-24.4 0-3.2 11.8L143.9 355.7 107.3 224l-33.2 0 54.5 196.3 3.3 11.7 24.4 0 3.2-11.8L192 300.8l32.6 119.4 3.2 11.8 24.4 0 3.3-11.7L309.9 224z"/></svg>

<svg xmlns="http://www.w3.org/2000/svg" viewBox="0 0 384 512"><!--! Font Awesome Pro 6.4.2 by @fontawesome - https://fontawesome.com License - https://fontawesome.com/license (Commercial License) Copyright 2023 Fonticons, Inc. --><path d="M352 480H32V32H192V176v16h16H352V480zM224 37.3L346.7 160H224V37.3zM232 0H32 0V32 480v32H32 352h32V480 152L232 0zm77.9 224H276.7L240.1 355.7 207.4 235.8 204.2 224H179.8l-3.2 11.8L143.9 355.7 107.3 224H74.1l54.5 196.3 3.3 11.7h24.4l3.2-11.8L192 300.8l32.6 119.4 3.2 11.8h24.4l3.3-11.7L309.9 224z"/></svg>
